X: 30426
T: Old Torn Petticoat, The
R: reel
M: 4/4
K: Adorian
AB|c2 Bc AGEF|G2 BG DGBG|cABG AGEF|GABG A2 AB|
c2 Bc AGEF|G2 BG dGBG|cABG AGEF|GABG A2 AB||
(3Bcd ef g3e|aged cA A2|(3Bcd ef gedg|eaag ea a2|
bagb agef|gage dBGB|c2 Bc AGEF|GABG A2 AB||

